X: 1
T: Lumsden's Rant
M: 4/4
L: 1/8
R: reel
K: Amix
|: e | A2c2 BAAB | Acfc eeef | A2c2 BAAB | acBA BBBc |
 A2c2 BAAB | Acfc eeef | eaaf ecce | aAcB A3:|
|: e | a2A2 feef | Aacf eeef |a2A2feef | ecBA BBBe |
 a2A2 feef | Aacf eeef | eaaf ecce | aAcB A3:|
|:e | aAca aeef | aAca eeef | aAca aeef | ecBA BBBe | 
aAca aeef | aAca eeef | eaaf ecce | aAcB A3:|
